!!!!SEGMENT: pl-kk--kk-i-88--003-004_golabek-jakub--missa-3-quoniam.krn
!!!cenid: 17xx:2585
!!!COM: Gołąbek, Jakub
!!!COM-rismID: pe30008748
!!!CDT: 1739-1789/03/30
!!!CNT: Polish
!!!OPR: Missa 3
!!!OTL: Quoniam
!!!OMV: 004
!!!PDT:
!!!AGN: Sacred; Mass
!!!YEC: Copyright 2022 Narodowy Instytut Fryderyka Chopina (https://polishscores.org)
!!!YEM: License CC-BY-4.0 (https://creativecommons.org/licenses/by/4.0)
!!!SMS-siglum: PL-Kk
!!!SMS-shelfmark: Kk.I.88
!!!SMS-variant:
!!!SMS-altvar:
!!!SMS-shelfwork: 003-004 M
!!!NIFC-rismSourceID: 1001164072
!!!NIFC-rismChildID: 1001164082
!!!NIFC-islandoraID:
!!!URL-pdf-islandora: https://repozytorium.nifc.pl/islandora/object/pl-kk%3A3086/datastream/PDF/view
!!!URL-scan: https://polish.musicsources.pl/pl/lokalizacje/galeria/rekopisy/6148-missa/4 @EN{Scan on Polish Music Sources Website} @PL{Skany w portalu Dziedzictwo Muzyki Polskiej w otwartym dostępie}
!!!IIIF:
!!!ONB-nifc: UWAGA: C - f. 6r-7v; A - f. 14r-15v; T - f. 22r-23v; B - f. 30r-31v; B rip - f. 35r-36v. Proszę uwzględniać B rip. Części Mszy: 1. Kyrie, 2. Christe, 3. Et in terra, 4. Quoniam, 5. Sanctus, 6. Osanna, 7. Benedictus, 8. Agnus Dei.
!!!OMD:
!!!AIN: 1 alto 2 bass 1 canto 1 tenor
!!!key: C
**kern	**text	**kern	**text	**kern	**text	**kern	**text	**kern	**text
*part5	*part5	*part4	*part4	*part3	*part3	*part2	*part2	*part1	*part1
*staff5	*staff5	*staff4	*staff4	*staff3	*staff3	*staff2	*staff2	*staff1	*staff1
*I"Baſso E ripieno	*	*I"Baſso	*	*I"Tenore	*	*I"Alto	*	*I"Canto	*
*I'B rip	*	*I'B	*	*I'T	*	*I'A	*	*I'S	*
*Ibass	*	*Ibass	*	*Itenor	*	*Ialto	*	*Icanto	*
*ICvox	*	*ICvox	*	*ICvox	*	*ICvox	*	*ICvox	*
*clefF4	*	*clefF4	*	*clefC4	*	*clefC3	*	*clefC1	*
*k[]	*	*k[]	*	*k[]	*	*k[]	*	*k[]	*
*C:	*	*C:	*	*C:	*	*C:	*	*C:	*
*M3/2	*	*M3/2	*	*M3/2	*	*M3/2	*	*M3/2	*
=1	=1	=1	=1	=1	=1	=1	=1	=1	=1
4C/	Quo-	4C/	Quo-	4G/	Quo-	4e\	Quo-	4cc\	Quo-
4D/	-ni-	4D/	-ni-	4G/	-ni-	4f\	-ni-	4b\	-ni-
4E/	-am	4E/	-am	4G/	-am	4g\	-am	4cc\	-am
4F/	tu	4F/	tu	4G/	tu	4a\	tu	4cc\	tu
4E/	so-	4E/	so-	4G/	so-	4g\	so-	4cc\	so-
4D/	-lus	4D/	-lus	4G/	-lus	4f\	-lus	4b\	-lus
=2	=2	=2	=2	=2	=2	=2	=2	=2	=2
4E/	San-	4E/	San-	2G/	S(an)-	4g\	San-	4cc\	S(anc)-
4D/	.	4D/	.	.	.	4f\	.	4b\	.
4C/	-ctus	4C/	-ctus	4G/	-ctus	4e\	-ctus	4cc\	-tus
4C/	tu	4C/	tu	4G/	tu	4e\	tu	4cc\	tu
!LO:LB:g=original	!	!	!	!	!	!LO:LB:g=original	!	!	!
=-	=-	=-	=-	=-	=-	=-	=-	=-	=-
4E/	so-	4E/	so-	4G/	so-	4g\	so-	4cc\	so-
4C/	-lus	4C/	-lus	4G/	-lus	4e\	-lus	4cc\	-lus
=3	=3	=3	=3	=3	=3	=3	=3	=3	=3
4G\	Do-	4G\	Do-	4G/	Do-	4d\	Do-	4b\	Do-
4G\	-mi-	4G\	-mi-	4G/	-mi-	4d\	-mi-	4b\	-mi-
*2\right	*	*2\right	*	*	*	*2\right	*	*2\right	*
2G\	-nus	2G\	-nus	2G/	-nus	2d\	-nus	2b\	-nus
2G\	tu	2G\	tu	2G/	tu	2d\	tu	2b\	tu
=4	=4	=4	=4	=4	=4	=4	=4	=4	=4
*	*	*	*	*2\right	*	*	*	*	*
4B\	so-	4B\	so-	2d\	so-	2f\	so-	4dd\	so-
4A\	.	4A\	.	.	.	.	.	4cc\	.
4G\	-lus	4G\	-lus	2d\	-lus	2f\	-lus	4b\	-lus
4A\	.	4A\	.	.	.	.	.	4cc\	.
8B\L	al-	8B\L	al-	2d\	al-	2f\	al-	8dd\L	al-
8G\	.	8G\	.	.	.	.	.	8b\	.
8A\	.	8A\	.	.	.	.	.	8cc\	.
8B\J	.	8B\J	.	.	.	.	.	8dd\J	.
!	!	!LO:LB:g=original	!	!	!	!	!	!LO:LB:g=original	!
=5	=5	=5	=5	=5	=5	=5	=5	=5	=5
4c\	-tiſ-	4c\	-tiſ-	2.c\	-tiſ-	2.g\	-tiſ-	2.ee\	-tiſ-
4G\	.	4G\	.	.	.	.	.	.	.
4E\	-si-	4E\	-si-	.	.	.	.	.	.
4G\	.	4G\	.	4B\	-si-	4f\	-si-	4dd\	-si-
2C/	-mus	2C/	-mus	2G/	-mus	2e\	-mus	2cc\	-mus
!	!	!	!	!LO:LB:g=original	!	!	!	!	!
=6	=6	=6	=6	=6	=6	=6	=6	=6	=6
4BB/	Je-	4BB/	Je-	1G	Je-	2f\	Je-	2dd\	Je-
4GG/	.	4GG/	.	.	.	.	.	.	.
4AA/	.	4AA/	.	.	.	2d\	.	2b\	.
4BB/	.	4BB/	.	.	.	.	.	.	.
2C/	-su	2C/	-su	2G/	-su	2e\	-su	2cc\	-su
=7	=7	=7	=7	=7	=7	=7	=7	=7	=7
4F\	Chri-	4F\	Chri-	2A/	Chri-	2d\	Chri-	2a\	Chris-
4D\	.	4D\	.	.	.	.	.	.	.
2G\	.	2G\	.	1G	.	2e\	.	2cc\	.
2GG/	.	2GG/	.	.	.	2d\	.	2b\	.
=8	=8	=8	=8	=8	=8	=8	=8	=8	=8
1C	-ste.	1C	-ste.	1G	-ste,	1e	-ste.	1cc	-te
2G\	Cum	2G\	Cum	2G/	Cum	2d\	Cum	2b\	Cum
=9	=9	=9	=9	=9	=9	=9	=9	=9	=9
2c\	San-	2c\	San-	1G	San-	2.e\	San-	1cc	San-
4C/	.	4C/	.	.	.	.	.	.	.
4D/	.	4D/	.	.	.	4f\	.	.	.
!LO:LB:g=original	!	!	!	!	!	!	!	!	!
=-	=-	=-	=-	=-	=-	=-	=-	=-	=-
.	.	.	.	.	.	8qqa/	.	.	.
4E\	.	4E/	.	2G/	-cto	4g\	.	2cc\	-cto
4F\	-cto	4F/	-cto	.	.	8f\L	-cto	.	.
.	.	.	.	.	.	8e\J	.	.	.
!	!	!	!	!	!	!LO:LB:g=original	!	!	!
=10	=10	=10	=10	=10	=10	=10	=10	=10	=10
2.G\	Spi-	2.G\	Spi-	2.G/	Spi-	2.d\	Spi-	2.b\	Spi-
4G\	-ri-	4G\	-ri-	4G/	-ri-	4d\	-ri-	4b\	-ri-
4G\	-tu	4G\	-tu	4G/	-tu	4d\	-tu	4b\	-tu
4G\	in	4G\	in	4G/	in	4d\	in	4b\	in
!	!	!LO:LB:g=original	!	!	!	!	!	!	!
=11	=11	=11	=11	=11	=11	=11	=11	=11	=11
4G\	glo-	4G\	glo-	4B\	glo-	1g	glo-	1dd	glo-
4A\	.	4A\	.	4c\	.	.	.	.	.
4B\	.	4B\	.	4d\	.	.	.	.	.
4A\	.	4A\	.	4c\	.	.	.	.	.
4G\	-ri-	4G\	-ri-	4B\	-ri-	4g\	-ri-	4dd\	-ri-
4F\	-a	4F\	-a	4A\	-a	4g\	-a	4dd\	-a
!	!	!	!	!	!	!	!	!LO:PB:g=original	!
=12	=12	=12	=12	=12	=12	=12	=12	=12	=12
2E\	De-	2E/	De-	1G	De-	2g\	De-	2cc\	De-
2D\	.	2D/	.	.	.	2f\	.	2b\	.
2C/	-i	2C/	-i	2G/	-i	2e\	-i	2cc\	-i
=13	=13	=13	=13	=13	=13	=13	=13	=13	=13
2BB/	Pa-	2BB/	Pa-	1G	Pa-	2d\	Pa-	2dd\	Pa-
2GG/	.	2GG/	.	.	.	2f\	.	2b\	.
2C/	-tris	2C/	-tris	2G/	-tris	2e\	-tris	2cc\	-tris
!	!	!	!	!LO:LB:g=original	!	!	!	!	!
=14	=14	=14	=14	=14	=14	=14	=14	=14	=14
2F\	a-	2F\	a-	2F/	a-	2f\	a-	2a\	a-
2G\	.	2G\	.	1G	.	2e\	.	2cc\	.
2GG/	.	2GG/	.	.	.	2d\	.	2b\	.
=15	=15	=15	=15	=15	=15	=15	=15	=15	=15
1C	-men	1C	-men	1G	-men	1e	-men	1cc	-men
2GG/	a-	2GG/	a-	2G/	a-	2d\	a-	2b\	a-
=16	=16	=16	=16	=16	=16	=16	=16	=16	=16
1.C	-men	1.C	-men	1.G	-men	1.e	-men	1cc	-men
.	.	.	.	.	.	.	.	2r	.
!LO:LB:g=original	!	!LO:PB:g=original	!	!LO:PB:g=original	!	!LO:PB:g=original	!	!LO:LB:g=original	!
==;;	==	==;;	==	==;;	==	==;;	==	==;;	==
*-	*-	*-	*-	*-	*-	*-	*-	*-	*-
!!!system-decoration: [(s1,s2,s3,s4)]s5
!!!ENC: Berenika Jozajtis
!!!END: 2024-02-28
!!!EED: Marta Chmielewska
!!!EEV: 2024-05-02
